X:1
T:Sunlight and Shadow
T:Tom Brier
T:Sunlight and Shadow
C:Tom Brier
%%score { ( 1 3 5 ) | ( 2 4 ) }
L:1/8
Q:1/4=100
M:3/4
K:A
V:1 treble nm="Piano" snm="Pno."
V:3 treble 
V:5 treble 
V:2 bass 
V:4 bass 
V:1
"^Adagio" E2 A2 | c3 A E2 |[Q:1/4=95] F3 G A2 |[Q:1/4=90] B3 c B2 | %4
[Q:1/4=85] !arpeggio![Bde]4[Q:1/4=100] EA |: [Ec]2 [CA]3 [CE] | [DF]2 [FA]3 [EG] | [CF]4 [CE]2 | %8
 [EAc]4 EA | c2 d B2 F | [DGB]4 EG | B2 c A2 F | E4 EA | [Ec]2 [CA]3 [CE] | [DF]2 [FA]3 [EG] | %15
 [CF]4 [CE]2 | [CE^Ac]4 FA | c2 d B2 F | [DGB]2 [Fd] [Ec]2 [DB] | [CA] F2 E ^DE |1 z4 EA :|2 %21
 [CA]2 E^D E^E |:[Q:1/4=105]"^Più mosso" F2 d F2 ^^F | G2 e F2 G | A2 f [ce]2 f | %25
 [^Ac]2 f [ce]2 f | c2 d B2 A | [GB]2 d c2 B | [Ed] c2 a [^B^df]2 | !arpeggio![ceac']b af eA | %30
 F2 d F2 ^^F | G2 e F2 G | A2 f [ce]2 a | [Adfa]2 [Gg] [Ad=fa]2 [Bb] | [ceac']2 cf e2 | EB A2 ^DF | %36
 [DE]2 [DGc]2- [DGc]B |1 [CEA]2 E^D E^E :|2 [CEA]4 EA || [Ec]2 [CA]3 [CE] | [DF]2 [FA]3 [EG] | %41
 [CF]4 [CE]2 | [EAc]4 EA | c2 d B2 F | [DGB]4 EG | B2 c A2 F | E4 EA | [Ec]2 [CA]3 [CE] | %48
 [DF]2 [FA]3 [EG] | [CF]4 [CE]2 | [CE^Ac]4 FA | c2 d B2 F | [DGB]2 [Fd] [Ec]2 [DB] | %53
 [CA] F2 E ^DE | [CA]6 |:[K:D] [DFA]6 | _A2 c3 B | [DFA] [Fd]2 [Ge] [Af]2- | [Af]2 [Ge]2 [Fd]2 | %59
 B g2 f e2 | A f2 e d2 | ^G e2 d Bd | [Gce]2 [Gcg]3 f | [Bd]6 | f2 e3 d | [FA]6 | _A2 c3 B | %67
 [FA] [Fd]2 [Ge] [Af]2- | [Af] [Bg]2 [Af] [Ge]2 | [Fd]6 |1 z A dc B_B :|2 z2 [DFd]=c A^A |: %72
[Q:1/4=110]"^Più mosso" Bg fg ag | _Bg fg ag | Af ^ef gf | Af ^ef ga | a b2 B e2 | f g2 c e2 | %78
 ^ef ba cd | gf ^GA ed | Bg fg ag | _Bg fg ag | Af ^ef gf | Af ^ef ga | a b2 B e2 | f g2 f e2 | %86
 d_B GD [GBe]f |1 [FAd]2 d=c A^A :|2 [FAd]2 !fermata![dfad']4 |] %89
V:2
!ped! E,2 A,2!ped-up! |!ped! C3 A, E,2!ped-up! |!ped! [F,D]4 C2!ped-up! | %3
!ped! B,,3 C, D,2!ped-up! |!ped! E,2 !fermata!E,,2 z2!ped-up! |: %5
!ped! [A,,A,]2 [E,A,C]2 [C,,C,]2!ped-up! |!ped! [D,,D,]2 [D,F,A,]2 [D,F,A,]2!ped-up! | %7
!ped! [A,,A,]2 [C,E,A,]2 [C,E,A,]2!ped-up! |!ped! [C,C]2 [C,E,A,]2 [C,E,A,]2!ped-up! | %9
!ped! [B,,B,]2 [D,F,B,]2 [D,F,B,]2!ped-up! |!ped! [E,,E,]2 [E,G,B,]2 [E,G,B,]2!ped-up! | %11
!ped! [A,,A,]2 [E,A,]2 [C,A,]2!ped-up! |!ped! [B,,G,]2 E,,4!ped-up! | %13
!ped! [A,,A,]2 [E,A,C]2 [C,,C,]2!ped-up! |!ped! [D,,D,]2 [D,F,A,]2 [D,F,A,]2!ped-up! | %15
!ped! [A,,A,]2 [C,E,A,]2 [=G,,=G,]2!ped-up! |!ped! !arpeggio![F,,C,^A,]2 [E,F,A,]4!ped-up! | %17
!ped! [B,,B,]2 [D,F,B,]2 [D,F,B,]2!ped-up! |!ped! [E,,E,]2 [E,G,B,]2 [E,G,B,]2!ped-up! | %19
!ped! [A,,E,]6!ped-up! |1!ped! A,,2 [E,,E,]4!ped-up! :|2!ped! A,,2 [C,C]2 [=C,=C]2!ped-up! |: %22
!ped! [B,,B,]2 [F,B,D]2 [F,,F,][=F,,=F,]!ped-up! |!ped! [E,,E,]2 [G,D]2 [G,D]2!ped-up! | %24
!ped! [A,,A,]2 [A,CE]2 [=G,,=G,]F,,-!ped-up! |!ped! [F,,F,]2 [F,^A,E]2 [F,A,E]2!ped-up! | %26
!ped! [B,,B,]2 [F,B,D]2 [F,B,D]2!ped-up! |!ped! [E,,E,]2 [G,D]2 [G,D]2!ped-up! | %28
!ped! [A,,A,]2 [E,A,C]2 [^D,A,^B,]2!ped-up! |!ped! [E,A,C]4 [A,CE]2!ped-up! | %30
!ped! [B,,B,]2 [F,B,D]2 [F,,F,][=F,,=F,]!ped-up! |!ped! [E,,E,]2 [G,D]2 [G,D]2!ped-up! | %32
!ped! [A,,A,]2 [A,CE]2 [=G,,=G,]F,,-!ped-up! |!ped! [F,,F,]2 [F,A,D]2 [=F,,=F,]2!ped-up! | %34
!ped! [E,,E,]2 [A,CE]4!ped-up! |!ped! [E,A,C]4 [C,A,]2!ped-up! | %36
!ped! [B,,G,]2 [E,,E,]2 [E,G,B,]2!ped-up! |1!ped! [A,,E,A,]2 [C,C]2 [=C,=C]2!ped-up! :|2 %38
!ped! [A,,A,]2 [E,,E,]4!ped-up! ||!ped! [A,,,A,,]2 [E,A,C]2 [C,,C,]2!ped-up! | %40
!ped! [D,,D,]2 [D,F,A,]2 [D,F,A,]2!ped-up! |!ped! [A,,A,]2 [C,E,A,]2 [C,E,A,]2!ped-up! | %42
!ped! [C,C]2 [C,E,A,]2 [A,,A,]B,,-!ped-up! |!ped! [B,,B,]2 [D,F,B,]2 [D,F,B,]2!ped-up! | %44
!ped! [E,,E,]2 [E,G,B,]2 [E,G,B,]2!ped-up! |!ped! [A,,A,]2 [E,A,]2 [C,A,]2!ped-up! | %46
!ped! [B,,G,]2 [E,,E,]4!ped-up! |!ped! [A,,,A,,]2 [E,A,C]2 [C,,C,]2!ped-up! | %48
!ped! [D,,D,]2 [D,F,A,]2 [D,F,A,]2!ped-up! |!ped! [A,,A,]2 [C,E,A,]2 [=G,,=G,]2!ped-up! | %50
!ped! !arpeggio![F,,C,^A,]2 [E,F,A,]4!ped-up! |!ped! [B,,,B,,]2 [D,F,B,]2 [D,F,B,]2!ped-up! | %52
!ped! [E,,E,]2 [E,G,B,]2 [E,G,B,]2!ped-up! |!ped! [A,,E,]6!ped-up! | %54
!ped! A,2 !fermata![A,,,A,,]7/2 D,,/-!ped-up! |:[K:D]!ped! [D,,D,]2 [D,F,A,]2 [D,F,A,]2!ped-up! | %56
!ped! [D,,D,]2 [=F,_A,B,]2 [F,A,B,]2!ped-up! |!ped! [D,,D,]2 [F,A,D]2 [F,A,D]2!ped-up! | %58
!ped! [F,,F,]2 [F,A,D]2 [F,A,D]2!ped-up! |!ped! !arpeggio![G,,D,B,]2 [G,B,D]2 [G,B,D]2!ped-up! | %60
!ped! !arpeggio![F,,D,A,]2 [F,A,D]2 [F,A,D]2!ped-up! | %61
!ped! !arpeggio![E,,B,,^G,]2 [E,G,D]2 [E,G,D]2!ped-up! | %62
!ped! [A,,A,]>^A,,- [A,,^A,]2 [F,A,E]2!ped-up! |!ped! [B,,B,]2 [F,B,D]2 [F,B,D]2!ped-up! | %64
!ped! !arpeggio![G,,D,_B,]2 [G,B,D]2 [G,B,D]2!ped-up! | %65
!ped! !arpeggio![F,,D,A,]2 [F,A,D]2 [F,A,D]2!ped-up! | %66
!ped! [=F,,D,_A,]2 [=F,A,D]2 [F,A,D]2!ped-up! |!ped! [F,,F,]2 [F,A,D]2 [D,,D,]2!ped-up! | %68
!ped! [A,,,A,,]2 [G,A,CE]2 [A,,A,]2!ped-up! |!ped! [D,,D,]2 [B,,B,] [A,,A,]2 [F,,F,]!ped-up! |1 %70
!ped! [D,,D,]4 !arpeggio![A,,E,G,C]2!ped-up! :|2!ped! [D,,D,]2 [E,,E,]2 [F,,F,]2!ped-up! |: %72
!ped! !arpeggio![G,,D,B,]2 [G,B,D]2 [G,B,D]2!ped-up! |!ped! [G,,G,]2 [G,_B,D]2 [G,B,D]2!ped-up! | %74
!ped! [F,,F,]2 [F,A,D]2 [F,A,D]2!ped-up! |!ped! [B,,,B,,]2 [F,A,B,^D]2 [F,A,B,D]2!ped-up! | %76
!ped! [E,,E,]2 [G,B,E]2 [G,B,E]2!ped-up! |!ped! [A,,,A,,]2 [G,A,CE]2 [G,A,CE]2!ped-up! | %78
!ped! [A,DF]4 [F,A,D]2-!ped-up! |!ped! [F,A,D]2 [D,F,A,]2 [F,,F,]2!ped-up! | %80
!ped! !arpeggio![G,,D,B,]2 [G,B,D]2 [G,B,D]2!ped-up! | %81
!ped! !arpeggio![G,,D,_B,]2 [G,B,D]2 [G,B,D]2!ped-up! | %82
!ped! !arpeggio![F,,D,A,]2 [F,A,D]2 [F,A,D]2!ped-up! | %83
!ped! [B,,,B,,]2 [F,A,B,^D]2 [F,A,B,D]2!ped-up! |!ped! [E,,E,]2 [G,B,E]2 [G,B,E]2!ped-up! | %85
!ped! [A,,A,]2 [G,A,C]2 [G,A,C]>G,,-!ped-up! |!ped! [G,,D,_B,]4 [G,B,D]2!ped-up! |1 %87
!ped! [F,A,D]2 [D,,A,,D,]2 [E,,E,][F,,F,]!ped-up! :|2 %88
!ped! [F,A,D]2 !arpeggio!!fermata![D,,A,,F,]4!ped-up! |] %89
V:3
 x4 | x6 | x6 | x6 | A2 !fermata!G2 x2 |: x6 | x6 | x6 | x6 | [DF]3 D3 | x6 | [CE]3 C3 | D4 x2 | %13
 x6 | x6 | x6 | x6 | D3 D3 | x6 | x6 |1 x6 :|2 x6 |: x6 | x6 | x6 | x6 | F3 F3 | x6 | x6 | x6 | %30
 x6 | x6 | x6 | x6 | x6 | x6 | x6 |1 x6 :|2 x6 || x6 | x6 | x6 | x6 | [DF]3 D3 | x6 | [CE]3 C3 | %46
 D4 x2 | x6 | x6 | x6 | x4 [CE]2 | D3 D3 | x6 | x6 | x6 |:[K:D] x6 | [D=F]6 | x6 | x6 | x6 | x6 | %61
 x6 | x6 | x6 | _B6 | x6 | =F6 | x6 | x6 | x6 |1 x6 :|2 x6 |: x6 | x6 | x6 | x6 | [Be]4 G2 | %77
 [Gc]4 G2 | x6 | x6 | x6 | x6 | x6 | x6 | [Be]4 G2 | [Ac]4 [Ac]2 | x6 |1 x6 :|2 x6 |] %89
V:4
 x4 | x6 | x6 | x6 | x6 |: x6 | x6 | x6 | x6 | x6 | x6 | x6 | x6 | x6 | x6 | x6 | x6 | x6 | x6 | %19
 z F,2 E, ^D,E, |1 x6 :|2 x6 |: x6 | x6 | x6 | x6 | x6 | x6 | x6 | x6 | x6 | x6 | x6 | x6 | x6 | %35
 x6 | x6 |1 x6 :|2 x6 || x6 | x6 | x6 | x6 | x6 | x6 | x6 | x6 | x6 | x6 | x6 | x6 | x6 | x6 | %53
 z F,2 E, ^D,E, | x6 |:[K:D] x6 | x6 | x6 | x6 | x6 | x6 | x6 | x6 | x6 | x6 | x6 | x6 | x6 | x6 | %69
 x6 |1 x6 :|2 x6 |: x6 | x6 | x6 | x6 | x6 | x6 | x6 | x6 | x6 | x6 | x6 | x6 | x6 | x6 | x6 |1 %87
 x6 :|2 x6 |] %89
V:5
 x4 | x6 | x6 | x6 | x6 |: x6 | x6 | x6 | x6 | x6 | x6 | x6 | x6 | x6 | x6 | x6 | x6 | x6 | x6 | %19
 x6 |1 x6 :|2 x6 |: x6 | x6 | x6 | x6 | x6 | x6 | x6 | x6 | x6 | x6 | x6 | x6 | x6 | x6 | x6 |1 %37
 x6 :|2 x6 || x6 | x6 | x6 | x6 | x6 | x6 | x6 | x6 | x6 | x6 | x6 | x6 | x6 | x6 | x6 | x6 |: %55
[K:D] x6 | x6 | x6 | x6 | [GB]6 | A6 | ^G6 | x6 | x6 | x6 | x6 | x6 | x6 | x6 | x6 |1 x6 :|2 x6 |: %72
 B6 | _B6 | A6 | A6 | x6 | x6 | x6 | x6 | B6 | _B6 | A6 | A6 | x6 | x6 | x6 |1 x6 :|2 x6 |] %89

